X:1
T:The Maids of Jura, Thirds
R:Slow March
C:John Maclellan, Dunoon
M:4/4
L:1/8
K:D
[| {g}A3 {d}A {g}A2d2 | {g}Bd3 {g}A4 | {g}f3 g {ag}a3 d | {g}d2 f2 {gef}e4 | 
{g}A3 B {Gdc}d3 c | {g}Bd3 {gef}e4 | {gfg}f3 e f{g}A3 | {gBd}B4 {G}A2 {g}de || 
{g}A8 | {g}G4 A4 |{g}d4 c3 B | {g}c d3 {gf}g4 | 
{g}A3 B {G}A4 | HG2 HA2 {g}c4 | d3 c {g}d e3 | "Spey tempo" {g}e4 d4 |]